X:1
T:Préludes - Book I - XII
T:Claude Debussy
T:Minstrels
%%score { ( 1 3 ) | ( 2 4 5 ) }
L:1/8
Q:1/4=80
M:2/4
K:G
V:1 bass nm="Piano"
V:3 bass 
V:2 bass 
V:4 bass 
V:5 bass 
V:1
"^Modéré" z!p!{B,A,G,} .D,/.E,/!p!{DC_B,} !>!.F, z | %1
 z!<(!{B,A,G,} .D,/.E,/{DCB,} !tenuto!F,/!<)!.F,/.F, | %2
 z!<(!{B,A,G,} .D,/.E,/{DC_B,} .F,/!<)!!>(!.F,/.F,/E,/!>)! |!pp!{B,A,G,} .D,/.D,/!>(!.D,/ z/ z2 | %4
 z!p!{B,A,G,} .D,/!>)!.E,/{DC_B,} .F, z | z!<(!{B,A,G,} .D,/.E,/{DC_B,} !tenuto!F,/!<)!.F,/.F, | %6
 z!<(!{B,A,G,} .D,/.E,/{DC_B,} !tenuto!F,/!<)!!>(!.F,/.F,/.E,/!>)! | %7
!pp!{B,A,G,} .D,/.D,/.D,/ z/ z2 | %8
[K:treble] z!p![I:staff +1] [D,E,]/[I:staff -1][A,B,]/[I:staff +1] [DE]/[I:staff -1][A,B,]/[I:staff +1][D,E,]/[I:staff -1][A,B,]/ | %9
 [DE]/[A,B,]/[I:staff +1][D,E,]/[I:staff -1][A,B,]/ [DE]!tenuto![B,DEG]- | %10
 [B,DEG]/E/D/E/ G/E/D/B,/ |[K:bass] G,/E,/D,/E,/ G,!tenuto![C,E,] | %12
[K:treble] z (A,/[DF]/ .[CE])[A,E-G-] |!>(! ([EG]/[DF]/[CE]/[B,D]/ .[CE])!>)!!pp!.[G,A,DF] | %14
 .[G,A,CE].[G,A,DF].[G,A,CE].[G,A,DF] | .[G,A,CE]!<(! .D/.E/!<)!!f! !^!F2- | %16
 F/.F/.F/.G/ .F/.F/.F/^A/ |!f! .F!<(! .!^![^G,^C^E^G].!^![^A,CF^A].!^![=CDF=Ad]!<)! | %18
 z!p![I:staff +1] .[D,E,]/[I:staff -1].[A,B,]/ .[DE]/.[A,B,]/[I:staff +1].[D,E,]/[I:staff -1].[A,B,]/ | %19
 .[DE]/.[A,B,]/[I:staff +1][D,E,]/[I:staff -1][A,B,]/ .[DE] !tenuto![B,DEG]- | %20
 [B,DEG]/.E/.D/.E/ .G/.E/.D/.B,/ |[K:bass] (G,/E,/D,/E,/ .G,)!tenuto![C,E,] | %22
 z[K:treble] A,/[DF]/.[CE]!tenuto![EG]- |!>(! [EG]/([DF]/[CE]/[B,D]/.[CE])!>)!!pp! .[G,A,DF] | %24
 .[G,A,CE].[G,A,DF].[G,A,CE].[G,A,DF] | .[G,A,CE]!<(! ._G/_A/!<)!!f! !^!_B2- | %26
!<(! B/G/_E/=F/ G/_B/c/_e/!<)! |!mf! .[D_Ad]/[DAd]/([Dd]/[_E_e]/) .[CAc]/.[CAc]/([Cc]/[Dd]/) | %28
 .[_B,_A_B]/[B,AB]/([B,B]/[Dd]/)!<(! ([Cc].[Gg])!<)! | %29
!mf! .[D_Ad]/.[DAd]/([Dd]/[_E_e]/) .[CAc]/.[CAc]/([Cc]/[Dd]/) | %30
 .[_B,_A_B]/.[B,AB]/([B,B]/[Dd]/)!f! ([Cc].[cc']) | z!<(! (D/E/ G/)!<)!.E/.D/.B,/ | %32
[K:bass]!>(! .G,/E,/.D,/E,/!>)! .G,.!tenuto![C,E,] | z4 | z4 | z4 | %36
 z2!<(! (.[G,B,_E]!tenuto![F,_B,D]-!<)! |!>(! [F,B,D].[=F,A,_D].[E,_A,C].[G,=B,_E])!>)! | %38
 !tenuto![D,F,_B,]4- | [D,F,B,]2{G,F,} ((!tenuto![=F,A,^C]2 |!>(! [D,F,_B,]4-))!>)! | %41
!<(! [D,F,B,]2{G,F,} ((!tenuto![=F,A,^C]2!<)! |!<(! [E,^G,C]2)){A,G,} !tenuto![=G,B,^D]2-!<)! | %43
 [G,B,D]2[K:treble] z/4!<(! (^C/4^c/4c/4 .!^!^c')!<)! | %44
 z!p![I:staff +1] .^C/[I:staff -1].D/[I:staff +1] .F/[I:staff -1].D/[I:staff +1].C/[I:staff -1].D/ | %45
 x3!f! ([^C^c]/[^D^d]/ | %46
 .[^CF^c])!p![I:staff +1] .C/[I:staff -1].D/[I:staff +1].F/[I:staff -1].D/[I:staff +1] .C/[I:staff -1].D/ | %47
 x3!f!!<(! ([^C^c]/[^D^d]/!<)! | .[^CF^c])!p! (D/E/ G/).E/.D/.B,/ | z4 | %50
 z!pp! .[C_E_A]/._A,/.[A,CEA].[_B,D=F_B] | .[_EG_B_e].[CEGc].[_A,CE_A].[_B,D=FB] | %52
 z!p! (D/E/ G/).E/.D/.B,/ | x4 | z!<(! .[^CEA]/.A,/.[A,CEA].[B,^DFB]!<)! | %55
!>(! .[E^GBe].[^CEG^c].[A,CEA].[B,^DFB]!>)! |!ppp! .[G,B,DG].[^G,B,E].C.D |!f! x4 | x4 | x4 | x4 | %61
 x4 | z2!p! (D[_D_E] | [CE][E=F][_E^F][DG] |!>(! [^B,CGB]2 [A,CDFA]2!>)! | [B,,B,-D-]4) | %66
 [B,D]2 (.A.D |!<(! !tenuto!E2) (.B!<)!.D |!<(! !tenuto!E2) (.c!<)!.D |!f!!<(! (E2) [Ee]2-)!<)! | %70
 [Ee]2!mf! (D!<(![_D_E] | [CE][E=F][_E^F][DG]!<)! | [^E^GB]2 [DF]2) |!f! !tenuto![=FA]4 | %74
[K:bass] G,/E,/D,/E,/ .G,.!tenuto![E,G,A,] |{A,_A,} !^![^C,G,B,]2{_B,=A,} !^![_A,CE]2- | %76
 [A,CE]2[K:treble] z/4 (D/4d/4d/4 .d') |[K:bass]!p! z{B,A,G,} .D,/.E,/{DC_B,} F, z | %78
 z{B,A,G,} .D,/.E,/{DC_B,} F,/.F,/.F, | %79
!p! z!<(!{B,A,G,} .D,/.E,/{DC_B,} F,/!<)!!>(!.F,/.F,/(.E,/!>)! | %80
{B,A,G,} .D,/).D,/.D,/.B,,/!pp! .A,, (3.D,,/.D,,/.D,,/ | z (3.D,,/.D,,/.D,,/ z .D,,/.D,,/ | %82
 z/ .D,,/ z/ .D,,/ z (3.D,,/.D,,/.D,,/ | z (3.D,,/.D,,/.D,,/ z .D,,/.D,,/ | %84
 z[K:treble]!f![I:staff +1] [D,E,]/[I:staff -1][A,B,]/ [DE]/[A,B,]/[I:staff +1][D,E,]/[I:staff -1][A,B,]/ | %85
 [DE]/[A,B,]/[I:staff +1][D,E,]/[I:staff -1][A,B,]/ [DE]{/^C} [B,DEG]- | %86
 [B,DEG]/!f!.E/!<(!.D/.E/ .G/.E/.D/.B,/ |[K:bass] .G,/.E,/.D,/E,/!<)! .G,!ff!.!^![C,E,] | %88
 .!^![B,,D,G,] z z2 |] %89
V:2
 .[G,,,G,,] z z .[D,,D,] | .[G,,,G,,] z z .[D,,D,] | .[G,,,G,,] z z .D,, | %3
 z3/2 .[B,,,B,,]/ .[A,,,A,,].[D,,,D,,] | .[G,,,G,,] z z .[D,,D,] | .[G,,,G,,] z z .[D,,D,] | %6
 .[G,,,G,,] z z .D,, | z3/2 .[B,,,B,,]/ .[A,,,A,,].[D,,,D,,] | .[G,,,G,,] x x2 | x2 x ([D,,,D,,] | %10
 [G,,,G,,]) z z2 | z2 z ((!tenuto![C,,G,,] | [A,,,A,,])) z z (([C,,C,] | [A,,,A,,])) z z .[C,,C,] | %14
 .[A,,,A,,].[C,,C,].[A,,,A,,].[C,,C,] | .[A,,,A,,] z z .!^![^C^E] | .!^![CE] z z .!^![B,D] | %17
 .!^![F,^C] .!^!^C,.!^![F,,,F,,].!^![D,,,D,,] | .[G,,,G,,] x x2 | x2 x (([D,,,D,,] | %20
 [G,,,G,,])) z z2 | z2 z (([C,,G,,] | .[A,,,A,,])) z z ((!tenuto![C,,C,] | %23
 .[A,,,A,,])) z z .[C,,C,] | .[A,,,A,,].[C,,C,].[A,,,A,,].[C,,C,] | .[A,,,A,,] z z .[D=F] | %26
 .[C_E].[_B,D].[_A,C].[G,B,] | z ._A, z .A, | z ._A, z .A, | z ._A, z .A, | z ._A, z .A, | z4 | %32
 z2 z .!tenuto![C,,G,,] |!>(! (G,,/E,,/D,,/E,,/ .G,,)!>)!!pp!!8vb(!.E,,, | .G,,,.E,,,.G,,,.E,,, | %35
 .G,,,.E,,,.G,,,.E,,, | .G,,,.E,,,.G,,,.E,,, | .G,,,.=F,,,.^F,,,.G,,, | %38
 ._A,,,!8vb)! (A,,,/_A,,/ ._A,/A,/A,/_A/ | _A,) z z2 | z _A,,,/_A,,/ _A,/A,/A,/_A/ | %41
 ._A, z ((!tenuto![B,,,B,,]2 | [_B,,,_B,,]2)) !tenuto![^C,,^C,]2- | [C,,C,]4 | %44
 z ([F,^A,]2 [G,B,]-) | [G,B,] [^G,B,]^C,(^C,, | .[F,,^C,^A,]) ([F,A,]2 [G,B,]-) | %47
 [G,B,] ([^G,B,]^C,)(^C,, | .[F,,^C,^A,]) z z2 | (G,/E,/D,/E,/ .G,)!tenuto![C,E,] | %50
 z .[_A,,,_E,,]/._A,,/.[A,,,E,,A,,].[_B,,,=F,,_B,,] | %51
 .[_E,,_B,,_E,].[C,,G,,C,].[_A,,,E,,_A,,].[_B,,,=F,,B,,] | z4 | (G,/E,/D,/E,/ .G,)!tenuto![C,E,] | %54
 z .[A,,,E,,]/.A,,/.[A,,,E,,A,,].[B,,,F,,B,,] | %55
 .[E,,B,,E,].[^C,,^G,,^C,].[A,,,E,,A,,].[B,,,F,,B,,] | z .E,.[C,E,G,].[D,F,A,] | %57
 z (3.D,/.D,/.D,/ !tenuto![^C,D,] (3.D,/.D,/.D,/ | x (3.D,/.D,/.D,/ x/ .D,/x/.D,/ | %59
 [^C,D,] (3.D,/.D,/.D,/ [C,D,] (3.D,/.D,/.D,/ | x (3.D,/D,/.D,/ x/ .D,/x/.D,/ | %61
 !tenuto![^C,D,] .D,/.D,/ !tenuto![C,D,] .D,/.D,/ | x3 _E, | E,=F,^F,G, | [A,,,A,,]2 [D,,D,]2 | %65
 A, G,2 F, | [D,E,]2 .A,.D, | !tenuto!E,2 .B,.D, | !tenuto!E,2 .C.D, | E,2 x2 | x2 D,_E, | %71
 E,=F,^F,G, | [B,^C]2 [F,=C]2 | !tenuto![A,B,]4 | [G,,,G,,]2 z .!tenuto![C,,G,,C,] | %75
 (([A,,,A,,]2 [D,,D,]2-)) | [D,,D,]4 | .[G,,,G,,] z z .[D,,D,] | .[G,,,G,,] z z .[D,,D,] | %79
 .[G,,,G,,] z z .[D,,D,] | z4 | .!tenuto![^C,,D,,] z .!tenuto![C,,D,,] z | %82
 .!tenuto![^C,,D,,]/ z/ .!tenuto![C,,D,,]/ z/ .!tenuto![C,,D,,] z | %83
 .!tenuto![^C,,D,,] z .!tenuto![C,,D,,] z | .!tenuto![^C,,D,,] z z2 | x4 | z4 | z2 z .!^![C,,G,,] | %88
 .!^![G,,,D,,G,,] z z2 |] %89
V:3
 x4 | x4 | x4 | x4 | x4 | x4 | x4 | x4 |[K:treble] x4 | x4 | x4 |[K:bass] x4 | %12
[K:treble] z [G,A,]2 ([G,A,]- | [G,A,]2) x2 | x4 | x4 | x4 | x4 | x4 | x4 | x4 |[K:bass] x4 | %22
 z[K:treble] [G,A,]2 [G,A,]- | [G,A,]2 x2 | x4 | x4 | x4 | z _A z A | z _A A2 | z _A z A | %30
 x _A A2 | x4 |[K:bass] x4 | x4 | x4 | x4 | x4 | x4 | x4 | x4 | x4 | x4 | x4 | x2[K:treble] x2 | %44
 x4 |[I:staff +1] .F/[I:staff -1].D/[I:staff +1] .^C/!<(![I:staff -1].^D/.F/.D/!<)! ^G | x4 | %47
[I:staff +1] .F/[I:staff -1].D/!<(![I:staff +1]^C/[I:staff -1].^D/ .F/.D/!<)! ^G | x4 | x4 | x4 | %51
 x4 | x4 | x4 | x4 | x4 | x4 | x4 | x4 | x4 | x4 | x4 | x4 | x4 | x4 | x4 | x4 | z [F,C]3 | %68
 z [F,CD]3 | z [G,B,D]3 | x4 | x4 | x4 | z D/E/ G/E/D/B,/ |[K:bass] x4 | x4 | x2[K:treble] x2 | %77
[K:bass] x4 | x4 | x4 | x4 | x4 | x4 | x4 | x[K:treble] x3 | x4 | x4 |[K:bass] x4 | x4 |] %89
V:4
 x4 | x4 | x4 | x4 | x4 | x4 | x4 | x4 | x4 | x4 | x4 | x4 | x4 | x4 | x4 | x4 | x4 | x4 | x4 | %19
 x4 | x4 | x4 | x4 | x4 | x4 | x4 | x4 | !tenuto![=F,,=F,]2 !tenuto![_E,,_E,]2 | %28
 !tenuto![D,,D,]2 !tenuto![_E,,_E,]2 | !tenuto![=F,,=F,]2 !tenuto![_E,,_E,]2 | %30
 [D,,D,]2 [_E,,_E,]2 | x4 | x4 | x3!8vb(! x | x4 | x4 | x4 | x4 | x!8vb)! x3 | %39
 x2 ((!tenuto![B,,,B,,]2 | [_A,,,_A,,]4)) | [_A,,,_A,,]2 x2 | x4 | z2!f! (^G,A,) | x4 | x4 | x4 | %47
 x4 | x4 | z2 z !tenuto![C,,G,,] | x4 | x4 | x4 | z2 z [C,,G,,] | x4 | x4 | %56
 .[G,,,D,,G,,].[E,,,B,,,E,,].[C,,,G,,,C,,].[D,,,A,,,D,,] | x4 | %58
 [^C,D,] x !tenuto![C,D,]/x/!tenuto![C,D,]/ x/ | x4 | %60
 [^C,D,] x !tenuto![C,D,]/x/!tenuto![C,D,]/ x/ | x4 | !tenuto![^C,D,] D, (D,_D, | C,E,_E,D, | x4 | %65
 ([G,,,G,,]4) | [D,,,D,,]4) | ([A,,,A,,]4 | [D,,,D,,]4) | z (D,/E,/ G,/E,/D,/B,,/ | %70
 G,,/E,,/D,,/B,,,/-) ([B,,,B,,][_B,,,_B,,] | [A,,,A,,][E,,E,][_E,,_E,][D,,D,] | %72
 [^C,,^C,]2 [D,,D,]2) | [G,,,G,,]4 | x4 | x4 | x2 A,.^A, | x4 | x4 | x4 | x4 | x4 | x4 | x4 | x4 | %85
 x4 | x4 | x4 | x4 |] %89
V:5
 x4 | x4 | x4 | x4 | x4 | x4 | x4 | x4 | x4 | x4 | x4 | x4 | x4 | x4 | x4 | x4 | x4 | x4 | x4 | %19
 x4 | x4 | x4 | x4 | x4 | x4 | x4 | x4 | x4 | x4 | x4 | x4 | x4 | x4 | x3!8vb(! x | x4 | x4 | x4 | %37
 x4 | x!8vb)! x3 | x4 | x4 | x4 | x4 | z2 ^B,2 | x4 | x4 | x4 | x4 | x4 | x4 | x4 | x4 | x4 | x4 | %54
 x4 | x4 | x4 | x4 | x4 | x4 | x4 | x4 | x4 | x4 | x4 | x4 | x4 | x4 | x4 | [G,,,G,,]4 | x4 | x4 | %72
 x4 | x4 | x4 | x4 | x2 ^C2 | x4 | x4 | x4 | x4 | x4 | x4 | x4 | x4 | x4 | x4 | x4 | x4 |] %89

